src/assets/filled/RouteSquare.svg

<?xml version="1.0" encoding="UTF-8"?>
<svg width="24" height="24" viewBox="0 0 24 24" xmlns="http://www.w3.org/2000/svg">
 <path d="m16.19 2h-8.38c-3.64 0-5.81 2.17-5.81 5.81v8.37c0 3.65 2.17 5.82 5.81 5.82h8.37c3.64 0 5.81-2.17 5.81-5.81v-8.38c0.01-3.64-2.16-5.81-5.8-5.81zm1.16 7.05-2.34 7.54c-0.56 1.79-3.07 1.82-3.66 0.04l-0.7-2.07c-0.19-0.57-0.64-1.03-1.21-1.21l-2.08-0.7c-1.76-0.59-1.74-3.12 0.05-3.66l7.54-2.35c1.48-0.45 2.87 0.94 2.4 2.41z"/>
</svg>

<svg width="24" height="24" viewBox="0 0 24 24"  xmlns="http://www.w3.org/2000/svg">
<path d="M16.19 2H7.81C4.17 2 2 4.17 2 7.81V16.18C2 19.83 4.17 22 7.81 22H16.18C19.82 22 21.99 19.83 21.99 16.19V7.81C22 4.17 19.83 2 16.19 2ZM17.35 9.05L15.01 16.59C14.45 18.38 11.94 18.41 11.35 16.63L10.65 14.56C10.46 13.99 10.01 13.53 9.44 13.35L7.36 12.65C5.6 12.06 5.62 9.53 7.41 8.99L14.95 6.64C16.43 6.19 17.82 7.58 17.35 9.05Z" />
</svg>
